assets/sonr-icons/theme-light.svg

<svg xmlns="http://www.w3.org/2000/svg" width="24" height="24" fill="none"><path fill="currentColor" d="M17 12a5 5 0 1 1-10.001-.001A5 5 0 0 1 17 12m-6-9a1 1 0 0 1 2 0v1a1 1 0 0 1-2 0zM5.636 7.051a1 1 0 1 0 1.415-1.415l-.707-.707a1 1 0 1 0-1.415 1.415zM19.071 4.93a1 1 0 0 0-1.415 0l-.707.707a1.001 1.001 0 0 0 1.415 1.414l.707-.707a1 1 0 0 0 0-1.414M7.05 16.949a1 1 0 0 0-1.415 0l-.707.707a1 1 0 1 0 1.414 1.415l.707-.707a1 1 0 0 0 0-1.415zm12.021 2.121a1 1 0 0 1-1.415 0l-.707-.707a1 1 0 1 1 1.415-1.415l.707.707a1 1 0 0 1 0 1.415M12 19a1 1 0 0 0-1 1v1a1 1 0 0 0 2 0v-1a1 1 0 0 0-1-1m9-8a1 1 0 0 1 0 2h-1a1 1 0 0 1 0-2zM5 12a1 1 0 0 0-1-1H3a1 1 0 0 0 0 2h1a1 1 0 0 0 1-1"/></svg>

<svg xmlns="http://www.w3.org/2000/svg" width="24" height="24" fill="none" viewBox="0 0 24 24"><path fill="#000" d="M17 12C17 14.761 14.761 17 12 17C9.239 17 7 14.761 7 12C7 9.239 9.239 7 12 7C14.761 7 17 9.239 17 12ZM11 3C11 2.448 11.448 2 12 2C12.552 2 13 2.448 13 3V4C13 4.552 12.552 5 12 5C11.448 5 11 4.552 11 4V3ZM5.636 7.051C6.027 7.442 6.66 7.442 7.051 7.051C7.442 6.66 7.442 6.027 7.051 5.636L6.344 4.929C5.953 4.538 5.32 4.538 4.929 4.929C4.538 5.32 4.538 5.953 4.929 6.344L5.636 7.051ZM19.071 4.93C18.68 4.539 18.047 4.539 17.656 4.93L16.949 5.637C16.558 6.028 16.558 6.661 16.949 7.051C17.34 7.441 17.973 7.442 18.364 7.051L19.071 6.344C19.462 5.953 19.462 5.321 19.071 4.93ZM7.05 16.949C6.659 16.558 6.026 16.558 5.635 16.949L4.928 17.656C4.537 18.047 4.537 18.68 4.928 19.071C5.319 19.462 5.952 19.462 6.342 19.071L7.049 18.364C7.44 17.973 7.44 17.34 7.049 16.949H7.05ZM19.071 19.07C18.68 19.461 18.047 19.461 17.656 19.07L16.949 18.363C16.558 17.972 16.558 17.339 16.949 16.948C17.34 16.557 17.973 16.557 18.364 16.948L19.071 17.655C19.462 18.046 19.462 18.679 19.071 19.07ZM12 19C11.448 19 11 19.448 11 20V21C11 21.552 11.448 22 12 22C12.552 22 13 21.552 13 21V20C13 19.448 12.552 19 12 19ZM21 11C21.552 11 22 11.448 22 12C22 12.552 21.552 13 21 13H20C19.448 13 19 12.552 19 12C19 11.448 19.448 11 20 11H21ZM5 12C5 11.448 4.552 11 4 11H3C2.448 11 2 11.448 2 12C2 12.552 2.448 13 3 13H4C4.552 13 5 12.552 5 12Z"/></svg>
